X: 1
T: Henry MacDermott Roe
M: 4/4
L: 1/8
R: reel
K: Cmaj
g2f/2e/2d c2G2|eAAB cA AB/2c/2|dddd e2dc|BAAG ECEG|
g2f/2e/2d c2G2|aAAB cAAB/2c/2|dddd {d}e2dc|{c}BAGB c2c2||
g2ga gece|d2de d2de|geag ecgd|ecc'g a2a2|
a/2b/2c' Tbg a/2b/2c' ec|a/2b/2c' a/2b/2c' d'aag|g2ga gece|e3/2f/2 e3/2d/2 c2c2|]
